X: 1
T: Mills Are Grinding, The
M: 4/4
L: 1/8
R: reel
K: Gmaj
E|DGGF G2GA|BGBd cAGF|D2DE FEFG|AdcA BGAF|
DGGF G2GA|BGBd cAFA|d2de fdcA|AGFA G3:|
B|dggf g2ga|bgga bgaf|d2de fefg|agfg aggf|
dggf g2ga|bgga bgaf|d2de fdcA|AGFA G3:|
